img/icon-instagram.svg

<svg width="87" height="63" viewBox="0 0 87 63" fill="none" xmlns="http://www.w3.org/2000/svg">
<ellipse cx="55" cy="31.5" rx="32" ry="31.5" fill="#1D7FA9" fill-opacity="0.21"/>
<path d="M48.0036 26.3402C47.9805 24.6677 47.6556 23.0118 47.0434 21.4465C46.5125 20.1263 45.7017 18.9273 44.6627 17.9261C43.6238 16.9249 42.3795 16.1436 41.0094 15.632C39.406 15.052 37.7121 14.7384 35.9998 14.7045C33.7952 14.6095 33.0963 14.583 27.5 14.583C21.9038 14.583 21.1865 14.583 18.998 14.7045C17.2864 14.7386 15.5933 15.0522 13.9907 15.632C12.6204 16.1432 11.3759 16.9244 10.3369 17.9256C9.29789 18.9269 8.4872 20.1261 7.95671 21.4465C7.35361 22.9905 7.02886 24.6224 6.9965 26.2717C6.89796 28.3984 6.86816 29.0719 6.86816 34.4647C6.86816 39.8574 6.86816 40.5464 6.9965 42.6576C7.03087 44.3094 7.354 45.9392 7.95671 47.4872C8.48809 48.8073 9.29938 50.006 10.3387 51.0068C11.3781 52.0076 12.6227 52.7885 13.993 53.2995C15.5912 53.9029 17.2846 54.2389 19.0002 54.2933C21.2071 54.3882 21.9061 54.4169 27.5023 54.4169C33.0986 54.4169 33.8159 54.417 36.0044 54.2933C37.7166 54.2608 39.4107 53.9479 41.014 53.368C42.3837 52.8558 43.6277 52.0743 44.6666 51.0732C45.7054 50.0721 46.5165 48.8734 47.048 47.5535C47.6507 46.0076 47.9738 44.3779 48.0082 42.7238C48.1067 40.5994 48.1365 39.9259 48.1365 34.5309C48.1319 29.1382 48.1319 28.4536 48.0036 26.3402V26.3402ZM27.4863 44.6627C21.6334 44.6627 16.8919 40.0937 16.8919 34.4536C16.8919 28.8135 21.6334 24.2445 27.4863 24.2445C30.2961 24.2445 32.9908 25.3201 34.9776 27.2347C36.9645 29.1493 38.0807 31.746 38.0807 34.4536C38.0807 37.1612 36.9645 39.758 34.9776 41.6726C32.9908 43.5871 30.2961 44.6627 27.4863 44.6627V44.6627ZM38.5023 26.2475C38.1778 26.2477 37.8564 26.1864 37.5566 26.0668C37.2567 25.9473 36.9843 25.772 36.7548 25.5508C36.5254 25.3297 36.3434 25.0672 36.2194 24.7782C36.0953 24.4893 36.0316 24.1796 36.0319 23.8669C36.0319 23.5544 36.0958 23.245 36.2199 22.9563C36.344 22.6676 36.5259 22.4053 36.7552 22.1843C36.9844 21.9634 37.2567 21.7881 37.5562 21.6685C37.8558 21.5489 38.1769 21.4874 38.5012 21.4874C38.8255 21.4874 39.1465 21.5489 39.4461 21.6685C39.7457 21.7881 40.0179 21.9634 40.2472 22.1843C40.4765 22.4053 40.6584 22.6676 40.7825 22.9563C40.9066 23.245 40.9705 23.5544 40.9705 23.8669C40.9705 25.183 39.8659 26.2475 38.5023 26.2475Z" fill="#1D7FA9" fill-opacity="0.81"/>
<path d="M27.4862 41.0853C31.287 41.0853 34.3681 38.1162 34.3681 34.4536C34.3681 30.7911 31.287 27.822 27.4862 27.822C23.6855 27.822 20.6044 30.7911 20.6044 34.4536C20.6044 38.1162 23.6855 41.0853 27.4862 41.0853Z" fill="#1D7FA9" fill-opacity="0.81"/>
</svg>

<svg width="87" height="63" fill="none" xmlns="http://www.w3.org/2000/svg"><ellipse cx="55" cy="31.5" rx="32" ry="31.5" fill="#1D7FA9" fill-opacity=".21"/><path d="M48.004 26.34a13.959 13.959 0 0 0-.96-4.893 10.153 10.153 0 0 0-2.381-3.52 10.611 10.611 0 0 0-3.654-2.295 15.643 15.643 0 0 0-5.01-.928c-2.204-.095-2.903-.121-8.499-.121s-6.314 0-8.502.121a15.64 15.64 0 0 0-5.007.928 10.605 10.605 0 0 0-3.654 2.294 10.147 10.147 0 0 0-2.38 3.52 14.012 14.012 0 0 0-.96 4.826c-.099 2.126-.129 2.8-.129 8.193 0 5.392 0 6.081.128 8.193a14.1 14.1 0 0 0 .96 4.83 10.153 10.153 0 0 0 2.383 3.519c1.04 1 2.284 1.782 3.654 2.293a15.58 15.58 0 0 0 5.007.993c2.207.095 2.906.124 8.502.124 5.597 0 6.314 0 8.502-.124a15.606 15.606 0 0 0 5.01-.925 10.624 10.624 0 0 0 3.653-2.295 10.165 10.165 0 0 0 2.381-3.52 14.08 14.08 0 0 0 .96-4.83c.099-2.124.128-2.797.128-8.192-.004-5.393-.004-6.077-.132-8.19ZM27.486 44.663c-5.853 0-10.594-4.57-10.594-10.21 0-5.64 4.741-10.209 10.594-10.209 2.81 0 5.505 1.076 7.492 2.99 1.986 1.915 3.103 4.512 3.103 7.22 0 2.707-1.117 5.304-3.103 7.219-1.987 1.914-4.682 2.99-7.492 2.99Zm11.016-18.415a2.55 2.55 0 0 1-.945-.181c-.3-.12-.573-.295-.802-.516a2.374 2.374 0 0 1-.536-.773 2.302 2.302 0 0 1 0-1.822c.125-.288.307-.55.536-.772.23-.22.502-.396.801-.515a2.55 2.55 0 0 1 1.89 0c.3.12.572.294.801.515.23.221.411.484.535.772.125.289.189.598.189.91 0 1.317-1.105 2.381-2.469 2.381Z" fill="#1D7FA9" fill-opacity=".81"/><path d="M27.486 41.085c3.801 0 6.882-2.969 6.882-6.631 0-3.663-3.081-6.632-6.882-6.632-3.8 0-6.882 2.97-6.882 6.632 0 3.662 3.082 6.631 6.882 6.631Z" fill="#1D7FA9" fill-opacity=".81"/></svg>
